X:85
T:Princess of Wales Minuet. LIT.085
M:3/4
Q:1/4=150
L:1/4
B:Wm. Litten MS, 1802
Z:Village Music Project 2017 Anne Wride
K:G
ggg | d2 G/B/ | AGF | A3 | eec/A/ | d2 B/A/ | Dc B/c/ | A3 :|
|: AAA | A/B/ GG | BBB | B/c/ AA | GBd | gdg/e/ | d/c/ BA | G3 :|

